styles/material-dark/images/emergency.svg

<?xml version="1.0" encoding="UTF-8" standalone="no"?>
<svg
   xmlns:dc="http://purl.org/dc/elements/1.1/"
   xmlns:cc="http://creativecommons.org/ns#"
   xmlns:rdf="http://www.w3.org/1999/02/22-rdf-syntax-ns#"
   xmlns:svg="http://www.w3.org/2000/svg"
   xmlns="http://www.w3.org/2000/svg"
   xmlns:sodipodi="http://sodipodi.sourceforge.net/DTD/sodipodi-0.dtd"
   xmlns:inkscape="http://www.inkscape.org/namespaces/inkscape"
   version="1.1"
   width="24"
   height="24"
   viewBox="0 0 24 24"
   id="svg957"
   sodipodi:docname="emergency.svg"
   inkscape:version="1.0.2-2 (e86c870879, 2021-01-15)">
  <metadata
     id="metadata6">
    <rdf:RDF>
      <cc:Work
         rdf:about="">
        <dc:format>image/svg+xml</dc:format>
        <dc:type
           rdf:resource="http://purl.org/dc/dcmitype/StillImage" />
      </cc:Work>
    </rdf:RDF>
  </metadata>
  <defs
     id="defs961" />
  <sodipodi:namedview
     id="namedview959"
     pagecolor="#505050"
     bordercolor="#ffffff"
     borderopacity="1"
     inkscape:pageshadow="0"
     inkscape:pageopacity="0"
     inkscape:pagecheckerboard="1"
     showgrid="false"
     inkscape:zoom="26"
     inkscape:cx="9"
     inkscape:cy="12.442308"
     inkscape:window-width="1920"
     inkscape:window-height="1018"
     inkscape:window-x="-6"
     inkscape:window-y="-6"
     inkscape:window-maximized="1"
     inkscape:current-layer="svg957"
     inkscape:document-rotation="0" />
  <path
     d="m 11,15 h 2 v 2 h -2 v -2 m 0,-8 h 2 v 6 H 11 V 7 m 1,-4 c -4.9705627,0 -9,4.0294373 -9,9 0,4.970563 4.0294373,9 9,9 4.970563,0 9,-4.029437 9,-9 0,-4.9705627 -4.029437,-9 -9,-9 m 0,16 C 8.14,19 5,15.86 5,12 5,8.14 8.14,5 12,5 c 3.86,0 7,3.14 7,7 0,3.86 -3.14,7 -7,7"
     id="path955"
     style="fill:#f44336;fill-opacity:1;font-variation-settings:normal;opacity:1;vector-effect:none;stroke-width:1;stroke-linecap:butt;stroke-linejoin:miter;stroke-miterlimit:4;stroke-dasharray:none;stroke-dashoffset:0;stroke-opacity:1;stop-color:#000000;stop-opacity:1"
     sodipodi:nodetypes="cccccccccccsssccsssc" />
</svg>

<?xml version="1.0" encoding="UTF-8" standalone="no"?>
<svg
   version="1.1"
   width="24"
   height="24"
   viewBox="0 0 24 24"
   id="svg957"
   sodipodi:docname="emergency.svg"
   inkscape:version="1.1 (c4e8f9ed74, 2021-05-24)"
   xmlns:inkscape="http://www.inkscape.org/namespaces/inkscape"
   xmlns:sodipodi="http://sodipodi.sourceforge.net/DTD/sodipodi-0.dtd"
   xmlns="http://www.w3.org/2000/svg"
   xmlns:svg="http://www.w3.org/2000/svg">
  <defs
     id="defs961" />
  <sodipodi:namedview
     id="namedview959"
     pagecolor="#505050"
     bordercolor="#ffffff"
     borderopacity="1"
     inkscape:pageshadow="0"
     inkscape:pageopacity="0"
     inkscape:pagecheckerboard="1"
     showgrid="false"
     inkscape:zoom="26"
     inkscape:cx="-0.38461538"
     inkscape:cy="12.019231"
     inkscape:window-width="1600"
     inkscape:window-height="826"
     inkscape:window-x="0"
     inkscape:window-y="0"
     inkscape:window-maximized="1"
     inkscape:current-layer="svg957" />
  <path
     d="M11,15H13V17H11V15M11,7H13V13H11V7M12,3A9,9 0 0,0 3,12A9,9 0 0,0 12,21A9,9 0 0,0 21,12A9,9 0 0,0 12,3M12,19C8.14,19 5,15.86 5,12C5,8.14 8.14,5 12,5C15.86,5 19,8.14 19,12C19,15.86 15.86,19 12,19M20.5,20.5C22.66,18.31 24,15.31 24,12C24,8.69 22.66,5.69 20.5,3.5L19.42,4.58C21.32,6.5 22.5,9.11 22.5,12C22.5,14.9 21.32,17.5 19.42,19.42L20.5,20.5M4.58,19.42C2.68,17.5 1.5,14.9 1.5,12C1.5,9.11 2.68,6.5 4.58,4.58L3.5,3.5C1.34,5.69 0,8.69 0,12C0,15.31 1.34,18.31 3.5,20.5L4.58,19.42Z"
     id="path955"
     style="fill:#e2e2e2" />
</svg>
